icons/skull.svg

<svg width="24" height="24" viewBox="0 0 24 24" fill="none" xmlns="http://www.w3.org/2000/svg">
<path d="M20 12C20 9.87827 19.1571 7.84344 17.6569 6.34315C16.1566 4.84285 14.1217 4 12 4C9.87827 4 7.84344 4.84285 6.34315 6.34315C4.84285 7.84344 4 9.87827 4 12V16H7C7.26522 16 7.51957 16.1054 7.70711 16.2929C7.89464 16.4804 8 16.7348 8 17V20H16V17C16 16.7348 16.1054 16.4804 16.2929 16.2929C16.4804 16.1054 16.7348 16 17 16H20V12ZM18 18V21C18 21.2652 17.8946 21.5196 17.7071 21.7071C17.5196 21.8946 17.2652 22 17 22H7C6.73478 22 6.48043 21.8946 6.29289 21.7071C6.10536 21.5196 6 21.2652 6 21V18H3C2.73478 18 2.48043 17.8946 2.29289 17.7071C2.10536 17.5196 2 17.2652 2 17V12C2 6.477 6.477 2 12 2C17.523 2 22 6.477 22 12V17C22 17.2652 21.8946 17.5196 21.7071 17.7071C21.5196 17.8946 21.2652 18 21 18H18ZM7.5 14C7.30302 14 7.10796 13.9612 6.92597 13.8858C6.74399 13.8104 6.57863 13.6999 6.43934 13.5607C6.30005 13.4214 6.18956 13.256 6.11418 13.074C6.0388 12.892 6 12.697 6 12.5C6 12.303 6.0388 12.108 6.11418 11.926C6.18956 11.744 6.30005 11.5786 6.43934 11.4393C6.57863 11.3001 6.74399 11.1896 6.92597 11.1142C7.10796 11.0388 7.30302 11 7.5 11C7.89782 11 8.27936 11.158 8.56066 11.4393C8.84196 11.7206 9 12.1022 9 12.5C9 12.8978 8.84196 13.2794 8.56066 13.5607C8.27936 13.842 7.89782 14 7.5 14ZM16.5 14C16.303 14 16.108 13.9612 15.926 13.8858C15.744 13.8104 15.5786 13.6999 15.4393 13.5607C15.3001 13.4214 15.1896 13.256 15.1142 13.074C15.0388 12.892 15 12.697 15 12.5C15 12.303 15.0388 12.108 15.1142 11.926C15.1896 11.744 15.3001 11.5786 15.4393 11.4393C15.5786 11.3001 15.744 11.1896 15.926 11.1142C16.108 11.0388 16.303 11 16.5 11C16.8978 11 17.2794 11.158 17.5607 11.4393C17.842 11.7206 18 12.1022 18 12.5C18 12.8978 17.842 13.2794 17.5607 13.5607C17.2794 13.842 16.8978 14 16.5 14Z" fill="black"/>
</svg>

<svg
  width="24"
  height="24"
  viewBox="0 0 24 24"
  xmlns="http://www.w3.org/2000/svg"
>
  <path d="M20 12a8 8 0 0 0-16 0v4h3a1 1 0 0 1 1 1v3h8v-3a1 1 0 0 1 1-1h3v-4zm-2 6v3a1 1 0 0 1-1 1H7a1 1 0 0 1-1-1v-3H3a1 1 0 0 1-1-1v-5C2 6.477 6.477 2 12 2s10 4.477 10 10v5a1 1 0 0 1-1 1h-3zM7.5 14a1.5 1.5 0 1 1 0-3 1.5 1.5 0 0 1 0 3zm9 0a1.5 1.5 0 1 1 0-3 1.5 1.5 0 0 1 0 3z" />
</svg>
